X:1
T:His Love Will Never Let Me Fall
T:His Love Will Never Let Me Fall
T:James Milton Black
T:Alice Horton, 1915
T:Public Domain Courtesy of the Cyber Hymnal™
T:Public Domain Courtesy of the Cyber Hymnal™
C:James Milton Black
Z:Public Domain
Z:Courtesy of the Cyber Hymnal™
%%score ( 1 2 ) ( 3 4 )
L:1/8
Q:1/4=100
M:4/4
K:C
V:1 treble 
V:2 treble 
V:3 bass 
V:4 bass 
V:1
 [CE][DF] | [EG]3 [EG] [FA][EG][DF][CE] | [EG]3 [^D^F] [=D=F]2 [DF][EG] | %3
w: 1.~I am|safe in Je- sus’ keep- ing|ev- ery day, And His|
w: 2.~When my|heart grows wea- ry with the|toil and strife, And the|
w: 3.~’Tis a|joy and bless- èd com- fort|thus to know That my|
w: 4.~Ev- ery|day the bless- ings of His|love I see, Ev- ery|
 [FB]3 [Ec] [Fd][DB][CG][DF] | [CE]6 [CE][DF] | [EG]3 [EG] [FA][EG][^D^F][EG] | %6
w: love will ne- ver let me|fall; Round a-|bout me are His lov- ing|
w: way seems al- most hid from|view; Then He|speaks to me in gra- cious|
w: Lord will ne- ver leave my|side; On the|sea, or on the land, wher-|
w: day He gives me of His|grace; From the|snares of sin He’ll ev- er|
 [FA]3 [GB] [Ac]2 [FB][Fc] | [^Fd][Fc][FB][Fc] [FB]2 [FA]2 | G6 ||"^Refrain" [FG]2 | %10
w: arms al- way, He’s my|Sav- ior and my all in|all.||
w: words of life That in|weak- ness oft my strength re-|new.|His|
w: e’er I go, In His|might- y love I will a-|bide.||
w: keep me free, Till I|look up- on His bless- èd|face.||
 [Ec]3 [DB] [Ec]2 [CE]2 | [B,F]3 [^A,E] [B,F]2 ([DF][EG]) | [FB]3 [FA] [FB][Fd][DB][FA] | %13
w: |||
w: love will ne- ver|let me fall, His *|love will ne- ver let me|
w: |||
w: |||
 [EG]6 [EG]2 | [Ec]3 [FB] [Gc]2 [Ge]2 | [Ad]3 [FA] !fermata![Ac]2 (BA) | %16
w: |||
w: fall, He|leads the way both|night and day, His *|
w: |||
w: |||
 [EG][EG][Gc][Gc] [^Fd]2 [=FB]2 | [Ec]6 |] %18
w: ||
w: love will ne- ver let me|fall.|
w: ||
w: ||
V:2
 x2 | x8 | x8 | x8 | x8 | x8 | x8 | x8 | (G2 E2 F2) || x2 | x8 | x8 | x8 | x8 | x8 | x6 ^D2 | x8 | %17
 x6 |] %18
V:3
 [C,G,][C,G,] | [C,C]3 [C,C] [C,C][C,C][C,G,][C,G,] | [G,,B,]3 [G,,B,] [G,,B,]2 [G,,B,][G,,B,] | %3
w: ~ ~|~ ~ ~ ~ ~ ~|~ ~ ~ ~ ~|
 [G,D]3 [G,D] [G,B,][G,,G,][A,,G,][B,,G,] | [C,G,]6 [C,G,][C,G,] | %5
w: ~ ~ ~ ~ ~ ~|~ ~ ~|
 [C,C]3 [C,C] [C,C][C,C][C,C][C,C] | [F,C]3 [F,C] [F,C]2 [F,^G,][F,A,] | %7
w: ~ ~ ~ ~ ~ ~|~ ~ ~ ~ ~|
 [D,A,][D,E][D,D][D,E] [D,D]2 [D,C]2 | (B,2 C2 D2) || [G,B,]2 | [C,G,]3 [C,G,] [C,G,]2 [C,G,]2 | %11
w: ~ ~ ~ ~ ~ ~|~ * *|~|~ ~ ~ ~|
 [D,G,][D,G,][D,G,][G,,G,] [D,G,]2 [G,,B,]2 | [G,,D][G,,D][G,,D][G,,C] [G,,B,]2 (G,B,) | %13
w: ne- ver let me fall, His|love will ne- ver let me, *|
 [C,C][C,C][C,C][G,,C] [C,C]2 [C,C]2 | [C,G,]3 [D,G,] [E,C]2 [C,C]2 | %15
w: ne- ver let me fall, *||
 [F,C]3 [F,C] !fermata![F,C]2 [^F,C]2 | [G,C][G,C][E,C][E,C] [D,C]2 [G,,D]2 | [C,C]6 |] %18
w: |||
V:4
 x2 | x8 | x8 | x8 | x8 | x8 | x8 | x8 | G,6 || x2 | x8 | x8 | x6 G,,2 | x8 | x8 | x8 | x8 | x6 |] %18

